!!!OTL: NINA BUBBAEIAE SCHLOF
!!!ARE: Europa, Mitteleuropa, Deutschland; France, Elsass
!!!SCT: E1813
!!!YEM: Copyright 1995, estate of Helmut Schaffrath.
**kern
*ICvox
*Ivox
*M6/8
*k[b-]
*F:
=1
{4.cc
4.a
=2
8g
8f
8g
4f
8r}
=3
{4g
8g
4a
8cc
=4
4b-
8b-
4.a}
=5
{4cc
8cc
4b-
8b-
=6
4a
8a
4.g}
=7
{4f
8g
4a
8b-
=8
4a
8g
4f
8r}
==
!!!AGN: Kinder -, Wiegen -, Schlaf - Lied
!!!ONB: ESAC (Essen Associative Code) Database: ERK3
!!!AMT: compound duple
!!!AIN: vox
!!!EED: Helmut Schaffrath
!!!EEV: 1.0
*-
